static/dist/images/icons/briefcase.svg

<svg xmlns="http://www.w3.org/2000/svg" viewBox="0 0 20 20"><path d="M9 10h2v2h9s-.149-4.459-.2-5.854C19.75 4.82 19.275 4 17.8 4h-3.208l-1.197-2.256C13.064 1.121 12.951 1 12.216 1H7.783c-.735 0-.847.121-1.179.744-.165.311-.7 1.318-1.196 2.256H2.199c-1.476 0-1.945.82-2 2.146C.145 7.473 0 12 0 12h9v-2zM7.649 2.916c.23-.432.308-.516.817-.516h3.067c.509 0 .588.084.816.516L12.924 4h-5.85l.575-1.084zM11 15H9v-2H.5s.124 1.797.199 3.322C.73 16.955.917 18 2.499 18H17.5c1.582 0 1.765-1.047 1.8-1.678.087-1.568.2-3.322.2-3.322H11v2z"/></svg>

<?xml version="1.0" encoding="utf-8"?>
<!-- Generator: Adobe Illustrator 18.1.0, SVG Export Plug-In . SVG Version: 6.00 Build 0)  -->
<!DOCTYPE svg PUBLIC "-//W3C//DTD SVG 1.1//EN" "http://www.w3.org/Graphics/SVG/1.1/DTD/svg11.dtd">
<svg version="1.1" id="Briefcase" xmlns="http://www.w3.org/2000/svg" xmlns:xlink="http://www.w3.org/1999/xlink" x="0px" y="0px"
	 viewBox="0 0 20 20" enable-background="new 0 0 20 20" xml:space="preserve">
<path d="M9,10h2v2h9c0,0-0.149-4.459-0.2-5.854C19.75,4.82,19.275,4,17.8,4h-3.208c-0.497-0.938-1.032-1.945-1.197-2.256
	C13.064,1.121,12.951,1,12.216,1H7.783C7.048,1,6.936,1.121,6.604,1.744C6.439,2.055,5.904,3.062,5.408,4H2.199
	c-1.476,0-1.945,0.82-2,2.146C0.145,7.473,0,12,0,12h9V10z M7.649,2.916C7.879,2.484,7.957,2.4,8.466,2.4h3.067
	c0.509,0,0.588,0.084,0.816,0.516c0.086,0.16,0.318,0.6,0.575,1.084H7.074C7.331,3.516,7.563,3.076,7.649,2.916z M11,15H9v-2H0.5
	c0,0,0.124,1.797,0.199,3.322C0.73,16.955,0.917,18,2.499,18H17.5c1.582,0,1.765-1.047,1.8-1.678C19.387,14.754,19.5,13,19.5,13H11
	V15z"/>
</svg>
